!!!!SEGMENT: pl-cz--i-75--002_kobierkowicz-jozef--apparuit-benignitas.krn
!!!cenid: 17xx:920
!!!COM: Kobierkowicz, Józef
!!!COM-rismID: pe30017725
!!!CDT: <1721->=1735
!!!CNT: Polish
!!!OTL: Apparuit benignitas
!!!PDT:
!!!AGN: Sacred
!!!SMS-siglum: PL-CZ
!!!SMS-shelfmark: I-75
!!!SMS-shelfwork: 002 W
!!!SMS-variant:
!!!SMS-altvar:
!!!NIFC-rismSourceID: 300237563
!!!NIFC-rismChildID: 300237565
!!!NIFC-islandoraID: pl-cz:31913
!!!URL-pdf-islandora: https://repozytorium.nifc.pl/islandora/object/pl-cz%3A31913/datastream/PDF/view
!!!URL-scan:
!!!ONB-nifc: UWAGA: Dormi mei redemptio i Apparuit benignitas to osobne utwory
!!!AIN: 1 cbass 1 organ 1 soprn 2 violn
!!!key: G
**kern	**fba	**kern	**kern	**dynam	**kern	**dynam	**kern	**text
*group3	*	*group2	*group2	*	*group2	*	*group1	*
*part5	*	*part4	*part3	*part3	*part2	*part2	*part1	*part1
*staff5	*	*staff4	*staff3	*	*staff2	*	*staff1	*staff1
*I"[Organo]	*	*I"Basso	*I"Viol 2do	*	*I"Viol. 1mo	*	*I"Soprano Solo	*
*I'[Org]	*	*I'[Cb]	*I'[Vl 2]	*	*I'[Vl 1]	*	*I'[S]	*
*Iorgan	*	*Icbass	*Ivioln	*	*Ivioln	*	*Isoprn	*
*ICklav	*	*ICstr	*ICstr	*	*ICstr	*	*ICvox	*
*IGcont	*	*IGacmp	*IGacmp	*	*IGacmp	*	*IGacmp	*
*clefF4	*	*clefF4	*clefG2	*	*clefG2	*	*clefC1	*
*k[f#]	*	*k[f#]	*k[f#]	*	*k[f#]	*	*k[f#]	*
*G:	*	*G:	*G:	*	*G:	*	*G:	*
*M3/2	*	*M3/2	*M3/2	*	*M3/2	*	*M3/2	*
=1	=1	=1	=1	=1	=1	=1	=1	=1
!LO:TX:t=P:problem=all\right&colon; global	!	!LO:TX:t=P:problem=all\right&colon; global	!	!	!LO:TX:t=P:problem=all\right&colon; global	!	!	!
*2\right	*	*2\right	*	*	*	*	*	*
!LO:TX:b:t=A\npparuit:rj	!	!	!	!	!LO:TX:b:t=Apparuit	!	!LO:TX:a:t=20.	!
!LO:TX:a:t=2do	!	!LO:TX:a:t=2do	!LO:TX:a:t=2do	!	!LO:TX:a:t=2do	!	!LO:TX:a:t=2do	!
2G\	.	2G\	2g/	.	2g/	.	00.r	.
2r	.	2r	4d/	.	4d/	.	.	.
.	.	.	4a/	.	4cc\	.	.	.
2r	.	2r	4g/	.	4b/	.	.	.
.	.	.	4f#/	.	4a/	.	.	.
=2	=2	=2	=2	=2	=2	=2	=2-	=2
2D/	6 4	2D/	4g/	.	4b/	.	.	.
.	.	.	8f#/L	.	8a/L	.	.	.
.	.	.	8e/J	.	8g/J	.	.	.
2D/	x 3:	2D/	2f#/	.	2a/	.	.	.
2DD/	.	2D/	2r	.	2r	.	.	.
=3	=3	=3	=3	=3	=3	=3	=3-	=3
!	!	!	!	!LO:DY:a:t=Piano	!	!LO:DY:a:t=Piano	!	!
2G\	.	2G\	2g/	p	2g/	p	.	.
2r	.	2r	4d/	.	4d/	.	.	.
.	.	.	4a/	.	4cc\	.	.	.
2r	.	2r	4g/	.	4b/	.	.	.
.	.	.	4f#/	.	4a/	.	.	.
=4	=4	=4	=4	=4	=4	=4	=4-	=4
2G\	.	2G\	4g/	.	4b/	.	.	.
.	.	.	8f#/L	.	8a/L	.	.	.
.	.	.	8e/J	.	8g/J	.	.	.
2D/	.	2D/	2f#/	.	2a/	.	.	.
2r	.	2r	2r	.	2r	.	.	.
=5	=5	=5	=5	=5	=5	=5	=5-	=5
!	!	!	!	!LO:DY:a:t=Forte	!	!LO:DY:a:t=Forte	!	!
2D/	.	2D/	2d/	f	2d/	f	00.r	.
2D/	.	2D/	2d/	.	2d/	.	.	.
*	*	*	*2\right	*	*2\right	*	*	*
2r	.	2r	2b/	.	2dd\	.	.	.
=6	=6	=6	=6	=6	=6	=6	=6-	=6
2D/	8 6	2D/	4b/	.	4dd\	.	.	.
.	.	.	4a/	.	[>4cc\	.	.	.
2r	.	2r	4a/	.	4cc\]	.	.	.
.	.	.	4g/	.	[<4b/	.	.	.
2r	.	2r	4g/	.	4b/]	.	.	.
.	.	.	4f#/	.	4a/	.	.	.
=7	=7	=7	=7	=7	=7	=7	=7-	=7
2D\	.	2D\	2d/	.	2d/	.	.	.
2D\	.	2D\	2d/	.	2d/	.	.	.
2r	.	2r	2cc\	.	2ee\	.	.	.
*	*	*	*custos:cc	*	*	*	*	*
!	!	!	!LO:LB:g=original	!	!	!	!	!
=8	=8	=8	=8	=8	=8	=8	=8-	=8
2D\	9 7	2D\	4cc\	.	4ee\	.	.	.
.	.	.	[<4b/	.	[>4dd\	.	.	.
2r	.	2r	4b/]	.	4dd\]	.	.	.
.	.	.	4a/	.	[>4cc\	.	.	.
2r	.	2r	4a/	.	4cc\]	.	.	.
.	.	.	4g/	.	4b\	.	.	.
=9	=9	=9	=9	=9	=9	=9	=9-	=9
2d\	9 x	2d\	2dd\	.	2ddd\	.	00.r	.
4c\	8 x	4c\	4cc\	.	4ccc\	.	.	.
4B\	8 x	4A\	4a/	.	4aa\	.	.	.
4A\	8 x	4B\	4b/	.	4bb\	.	.	.
4G\	8 x	4G\	4g/	.	4gg\	.	.	.
!LO:LB:g=original	!	!LO:LB:g=original	!	!	!LO:LB:g=original	!	!	!
=10	=10	=10	=10	=10	=10	=10	=10-	=10
4F#\	9 x	4F#\	4f#/	.	4ff#\	.	.	.
4G\	9 x	4G\	4g/	.	4gg\	.	.	.
4A\	9 x	4A\	4a/	.	4aa\	.	.	.
!LO:TX:t=P:problem=brak nuty	!	!	!	!	!	!	!	!
4ryy	.	4B\	4b/	.	4bb\	.	.	.
2D/	9 x	2D/	2d/	.	2dd\	.	.	.
=11	=11	=11	=11	=11	=11	=11	=11-	=11
2d\	9 x	2d\	2dd\	.	2ddd\	.	.	.
4c\	9 x	4c\	4cc\	.	4ccc\	.	.	.
4B\	9 x	4B\	4b/	.	4aa\	.	.	.
4A\	8 x	4A\	4a/	.	4bb\	.	.	.
4G\	9 x	4G\	4g/	.	4gg\	.	.	.
=12	=12	=12	=12	=12	=12	=12	=12-	=12
4F#\	9 x	4F#\	4f#/	.	4ff#\	.	.	.
4G\	9 x	4G\	4g/	.	4gg\	.	.	.
4A\	9 x	4A\	4a/	.	4aa\	.	.	.
4B\	8 x	4B\	4b/	.	4bb\	.	.	.
2D/	9 x	2D/	2d/	.	2dd\	.	.	.
=13	=13	=13	=13	=13	=13	=13	=13-	=13
!LO:TX:a:t=|:problem	!	!	!	!	!	!	!	!
2D/	.	2D/	4f#/	.	4a/	.	00.r	.
.	.	.	4e/	.	4g/	.	.	.
!LO:TX:a:t=|:problem	!	!	!	!	!	!	!	!
2D/	.	2D/	4d/	.	4f#/	.	.	.
.	.	.	8e/L	.	8g/L	.	.	.
.	.	.	8f#/J	.	8a/J	.	.	.
!LO:TX:a:t=|:problem	!	!	!	!	!	!	!	!
2D/	.	2D/	4g/	.	4b/	.	.	.
.	.	.	8f#/L	.	8a/L	.	.	.
.	.	.	8e/J	.	8g/J	.	.	.
=14	=14	=14	=14	=14	=14	=14	=14-	=14
!LO:TX:a:t=|:problem	!	!	!	!	!	!	!	!
2D/	.	2D/	4f#/	.	4a/	.	.	.
.	.	.	4e/	.	4g/	.	.	.
!LO:TX:a:t=|:problem	!	!	!	!	!	!	!	!
2D/	.	2D/	4d/	.	4f#/	.	.	.
.	.	.	8e/L	.	8g/L	.	.	.
.	.	.	8f#/J	.	8a/J	.	.	.
!LO:TX:a:t=|:problem	!	!	!	!	!	!	!	!
2D/	.	2D/	4g/	.	4b/	.	.	.
.	.	.	8f#/L	.	8a/L	.	.	.
.	.	.	8e/J	.	8g/J	.	.	.
!	!	!	!LO:LB:g=original	!	!	!	!	!
=15	=15	=15	=15	=15	=15	=15	=15-	=15
!LO:TX:a:t=|:problem	!	!	!	!	!	!	!	!
2D/	.	2D/	4f#/	.	4a/	.	.	.
.	.	.	4e/	.	4g/	.	.	.
!LO:TX:a:t=|:problem	!	!	!	!	!	!	!	!
2D/	.	2D/	2d/	.	2f#/	.	.	.
2r	.	2r	2r	.	2r	.	.	.
=16	=16	=16	=16	=16	=16	=16	=16-	=16
!LO:TX:a:t=|:problem	!	!	!	!	!	!	!	!
2G\	.	2G\	4b/	.	4dd\	.	.	.
.	.	.	4a/	.	4cc\	.	.	.
!LO:TX:a:t=|:problem	!	!	!	!	!	!	!	!
2G\	.	2G\	4g/	.	4b\	.	.	.
.	.	.	8a/L	.	8cc\L	.	.	.
.	.	.	8b/J	.	8dd\J	.	.	.
!LO:TX:a:t=|:problem	!	!	!	!	!	!	!	!
2G\	.	2G\	4cc\	.	4ee\	.	.	.
.	.	.	8b/L	.	8dd\L	.	.	.
.	.	.	8a/J	.	8cc\J	.	.	.
=17	=17	=17	=17	=17	=17	=17	=17-	=17
2G\	.	2G\	4b/	.	4dd\	.	00.r	.
.	.	.	4a/	.	4cc\	.	.	.
2G\	.	2G\	4g/	.	4b\	.	.	.
.	.	.	8a/L	.	8cc\L	.	.	.
.	.	.	8b/J	.	8dd\J	.	.	.
!	!	!	!	!	!LO:LB:g=original	!	!	!
2G\	.	2G\	4cc\	.	4ee\	.	.	.
.	.	.	8b/L	.	8dd\L	.	.	.
.	.	.	8a/J	.	8cc\J	.	.	.
=18	=18	=18	=18	=18	=18	=18	=18-	=18
2G\	x 3:	2G\	4b/	.	4dd\	.	.	.
.	.	.	4a/	.	4cc\	.	.	.
2G\	.	2G\	2g/	.	2b\	.	.	.
2r	.	2r	2r	.	2r	.	.	.
!	!	!LO:PB:g=original	!	!	!	!	!	!
=19	=19	=19	=19	=19	=19	=19	=19-	=19
2G\	8 x	2G\	2g/	.	2gg\	.	.	.
2G\	8 x	2G\	2g/	.	2gg\	.	.	.
2d\	9 x	2d\	2dd\	.	2ddd\	.	.	.
!LO:LB:g=original	!	!	!	!	!	!	!	!
=20	=20	=20	=20	=20	=20	=20	=20-	=20
4B\	9 x	4B\	4b/	.	4bb\	.	.	.
4F#\	9 x	4F#\	4f#/	.	4ff#\	.	.	.
2G\	9 x	2G\	2g/	.	2gg\	.	.	.
2GG/	9 x	2GG/	2r	.	2r	.	.	.
=21	=21	=21	=21	=21	=21	=21	=21	=21
!LO:TX:b:i:t=Canto.	!	!	!	!LO:DY:a:t=Piano	!	!LO:DY:a:t=Piano	!LO:TX:t=P:problem=all\right&colon; global	!
2G\	.	2G\	2g/	p	2g/	p	2g/	Ap-
2r	.	2r	4d/	.	4d/	.	4d/	-pa-
.	.	.	4cc\	.	4cc\	.	4cc\	-ru-
!	!	!	!	!	!	!	!LO:LB:g=original	!
2r	.	2r	4g/	.	4b/	.	4b\	-it
.	.	.	4f#/	.	4a/	.	4a\	be-
=22	=22	=22	=22	=22	=22	=22	=22	=22
2GG/	.	2G\	4g/	.	4b/	.	4b\	-ni-
.	.	.	8f#/L	.	8a/L	.	(>8a\L	-gni-
.	.	.	8e/J	.	8g/J	.	8g\J)	.
*	*	*	*	*	*	*	*2\right	*
2d\	.	2d\	2f#/	.	2a/	.	2a\	-tas
2D/	.	2D/	2r	.	2r	.	2r	.
!	!	!	!LO:LB:g=original	!	!	!	!	!
=23	=23	=23	=23	=23	=23	=23	=23	=23
2G\	.	2GG/	2g/	.	2g/	.	2g/	E-
2r	.	2r	4d/	.	4d/	.	4d/	-ru-
.	.	.	4a/	.	4cc\	.	4cc\	-di-
2r	.	2r	4g/	.	4b/	.	4b\	-ens
.	.	.	4f#/	.	4a/	.	4a\	Hu-
=24	=24	=24	=24	=24	=24	=24	=24	=24
2D/	6 4	2D/	4g/	.	4b/	.	4b\	-ma-
.	.	.	8f#/L	.	8a/L	.	(>8a\L	-ni-
.	.	.	8e/J	.	8g/J	.	8g\J)	.
2D/	x 3	2D/	2f#/	.	2a/	.	2a\	-tas
2DD/	.	2D/	2r	.	2r	.	2r	.
=25	=25	=25	=25	=25	=25	=25	=25	=25
2D\	.	2D/	2d/	.	2d/	.	2d/	o
2D\	.	2D/	2d/	.	2d/	.	2d/	Gem-
2r	.	2r	2b\	.	2dd\	.	2dd\	-ma
=26	=26	=26	=26	=26	=26	=26	=26	=26
2D\	9 6	2D/	4b/	.	4dd\	.	4dd\	cor-
.	.	.	[<4a/	.	[>4cc\	.	4cc\	-dis
2r	.	2r	4a/]	.	4cc\]	.	4cc\	Par-
.	.	.	4g/	.	[<4b/	.	4b\	-vu-
2r	.	2r	(<4g/	.	4b/]	.	(>4b\	-le
.	.	.	4f#/)	.	4a/	.	4a\)	.
*	*	*	*	*	*custos:d	*	*	*
!	!	!	!	!	!LO:LB:g=original	!	!LO:PB:g=original	!
=27	=27	=27	=27	=27	=27	=27	=27	=27
2D/	.	2D/	2d/	.	2d/	.	2d/	Tam
2D/	.	2D/	2d/	.	2d/	.	2d/	bel-
2r	.	2r	2cc\	.	2ee\	.	2ee\	-le
=28	=28	=28	=28	=28	=28	=28	=28	=28
2D/	9 7	2D/	4cc\	.	4ee\	.	4ee\	flo-
.	.	.	4b/	.	[>4dd\	.	4dd\	-rum
2r	.	2r	(<4b/	.	4dd\]	.	4dd\	flos-
.	.	.	[<4a/)	.	[>4cc\	.	4cc\	-cu-
2r	.	2r	4a/]	.	4cc\]	.	(>4cc\	-le
.	.	.	4g/	.	4b\	.	4b\)	.
=29	=29	=29	=29	=29	=29	=29	=29	=29
2d\	9 x	2d\	2dd\	.	2ddd\	.	2dd\	Ru-
4c\	9 x	4c\	4cc\	.	4ccc\	.	4cc\	-ben-
4A\	9 x	4A\	4a/	.	4aa\	.	4a\	-te
!	!	!LO:LB:g=original	!	!	!	!	!	!
4B\	9 x	4B\	4b/	.	4bb\	.	4b\	si-
4G\	9 x	4G\	4g/	.	4gg\	.	4g/	-gno
=30	=30	=30	=30	=30	=30	=30	=30	=30
4F#\	9 x	4F#\	4f#/	.	4ff#\	.	4f#/	vir-
4G\	9 x	4G\	4g/	.	4gg\	.	4g/	.
4A\	9 x	4A\	4a/	.	4aa\	.	4a\	.
4B\	9 x	4B\	4b/	.	4bb\	.	4b\	-gi-
2D/	9 x	2D/	2d/	.	2dd\	.	2d/	-nis
!LO:PB:g=original	!	!	!LO:LB:g=original	!	!	!	!	!
=31	=31	=31	=31	=31	=31	=31	=31	=31
2d\	9 x	2d\	2dd\	.	2ddd\	.	2dd\	Ex-
4c\	9 x	4c\	4cc\	.	4ccc\	.	4cc\	-ten-
4A\	9 x	4A\	4a/	.	4aa\	.	4a\	-dit
4B\	8 x	4B\	4b/	.	4bb\	.	4b\	or-
4G\	8 x	4G\	4g/	.	4gg\	.	4g/	-tum
*	*	*	*	*	*	*	*custos:f#	*
!	!	!	!	!	!	!	!LO:LB:g=original	!
=32	=32	=32	=32	=32	=32	=32	=32	=32
4F#\	8 x	4F#\	4f#/	.	4ff#\	.	4f#/	lu-
4G\	8 x	4G\	4g/	.	4gg\	.	4g/	.
4A\	9 x	4A\	4a/	.	4aa\	.	4a\	.
4B\	8 x	4B\	4b/	.	4bb\	.	4b\	-mi-
2D/	8 x	2D/	2d/	.	2dd\	.	2d/	-nis
=33	=33	=33	=33	=33	=33	=33	=33	=33
!LO:TX:a:t=|:problem	!	!	!	!	!	!	!	!
2D/	.	2D/	4f#/	.	4a/	.	(>4a\	in
.	.	.	4e/	.	4g/	.	4g\)	.
!LO:TX:a:t=|:problem	!	!	!	!	!	!	!	!
2D/	.	2D/	4d/	.	4f#/	.	4f#/	lu-
.	.	.	8e/L	.	8g/L	.	(>8g\L	.
.	.	.	8f#/J	.	8a/J	.	8a\J)	.
!LO:TX:a:t=|:problem	!	!	!	!	!	!	!	!
2D/	.	2D/	4g/	.	4b/	.	(>4b\	-ce
.	.	.	8f#/L	.	8a/L	.	8a\L	.
.	.	.	8e/J	.	8g/J	.	8g\J)	.
=34	=34	=34	=34	=34	=34	=34	=34	=34
!LO:TX:a:t=|:problem	!	!	!	!	!	!	!	!
2D/	.	2D/	4f#/	.	4a/	.	(>4a\	ne-
.	.	.	4e/	.	4g/	.	4g\)	.
!LO:TX:a:t=|:problem	!	!	!	!	!	!	!	!
2D/	.	2D/	4d/	.	4f#/	.	4f#/	.
.	.	.	8e/L	.	8g/L	.	8g/L	.
.	.	.	8f#/J	.	8a/J	.	8a/J	.
!LO:TX:a:t=|:problem	!	!	!	!	!	!	!	!
2D/	.	2D/	4g/	.	4b/	.	(>4b\	-scit
.	.	.	8f#/L	.	8a/L	.	8a\L	.
.	.	.	8e/J	.	8g/J	.	8g\J)	.
!	!	!	!	!	!LO:LB:g=original	!	!	!
=35	=35	=35	=35	=35	=35	=35	=35	=35
!LO:TX:a:t=|:problem	!	!	!	!	!	!	!	!
2D/	.	2D/	4f#/	.	4a/	.	4a\	Hes-
.	.	.	4e/	.	4g/	.	4g/	-pe-
!LO:TX:a:t=|:problem	!	!	!	!	!	!	!	!
2D/	.	2D/	2d/	.	2f#/	.	2f#/	-rum
2r	.	2r	2r	.	2r	.	2r	.
=36	=36	=36	=36	=36	=36	=36	=36	=36
!LO:TX:a:t=|:problem	!	!	!	!	!	!	!	!
2G\	.	2G\	4b/	.	4dd\	.	(>4dd\	na-
.	.	.	4a/	.	4cc\	.	4cc\)	.
!LO:TX:a:t=|:problem	!	!	!	!	!	!	!	!
2G\	.	2G\	4g/	.	4b\	.	4b\	.
.	.	.	8a/L	.	8cc\L	.	8cc\L	.
.	.	.	8b/J	.	8dd\J	.	8dd\J	.
!LO:TX:a:t=|:problem	!	!	!	!	!	!	!	!
2G\	.	2G\	4cc/	.	4ee\	.	(>4ee\	-tus
.	.	.	8b/L	.	8dd\L	.	8dd\L)	.
.	.	.	8a/J	.	8cc\J	.	8cc\J	.
!	!	!LO:LB:g=original	!	!	!	!	!	!
=37	=37	=37	=37	=37	=37	=37	=37	=37
!LO:TX:a:t=|:problem	!	!	!LO:N:vis=8	!	!	!	!	!
2G\	.	2G\	4b/L	.	4dd\	.	(>4dd\	an-
!	!	!	!LO:N:vis=8	!	!	!	!	!
.	.	.	4a/J	.	4cc\	.	4cc\)	.
!	!	!	!LO:LB:g=original	!	!	!	!	!
!LO:TX:a:t=|:problem	!	!	!	!	!	!	!	!
2G\	.	2G\	4g/	.	4b\	.	(>4b\	-te
.	.	.	8a/L	.	8cc\L	.	8cc\L	.
.	.	.	8b/J	.	8dd\J	.	8dd\J)	.
!LO:TX:a:t=|:problem	!	!	!	!	!	!	!	!
!	!	!	!	!	!	!	!LO:LB:g=original	!
2G\	.	2G\	4cc\	.	4ee\	.	(>4ee\	lu-
.	.	.	8b/L	.	8dd\L	.	8dd\L	.
.	.	.	8a/J	.	8cc\J	.	8cc\J)	.
=38	=38	=38	=38	=38	=38	=38	=38	=38
!LO:TX:a:t=|:problem	!	!	!	!	!	!	!	!
2G\	.	2G\	4b/	.	4dd\	.	4dd\	-ci-
.	.	.	4a/	.	4cc\	.	4cc\	-fe-
!LO:TX:a:t=|:problem	!	!	!	!	!	!	!	!
2G\	.	2G\	2g/	.	2b\	.	2b\	-rum
2r	.	2r	2r	.	2r	.	2r	.
=39	=39	=39	=39	=39	=39	=39	=39	=39
!	!	!	!	!	!	!LO:DY:b:t=Forte	!	!
2G\	9 x	2G\	2g/	.	2gg\	f	2g/	an-
2G\	8 x	2G\	2g/	.	2gg\	.	2g/	-te
2d\	9 x	2d\	2dd\	.	2ddd\	.	2dd\	lu-
!LO:LB:g=original	!	!	!	!	!	!	!	!
=40	=40	=40	=40	=40	=40	=40	=40	=40
4B\	9 x	4B\	4b\	.	4bb\	.	4b\	-ci-
4F#\	9 x	4F#\	4f#/	.	4ff#\	.	4f#/	-fe-
2G\	8 x	2G\	2g/	.	2gg\	.	2g/	-rum
!	!	!	!	!LO:DY:b:t=Forte	!	!	!	!
2GG/	8 x	2GG/	2dd\	f	2ddd\	.	2r	.
=41	=41	=41	=41	=41	=41	=41	=41	=41
[>1.GG	.	[>1.GG	4dd\	.	4ddd\	.	00.r	.
.	.	.	4b/	.	4bb\	.	.	.
.	.	.	2b/	.	2bb\	.	.	.
.	.	.	4a/	.	4aa\	.	.	.
.	.	.	4g/	.	4gg\	.	.	.
=42	=42	=42	=42	=42	=42	=42	=42-	=42
1.GG_>	.	1.GG_>	4g/	.	4gg\	.	.	.
.	.	.	4d/	.	4dd\	.	.	.
.	.	.	4a/	.	4aa\	.	.	.
.	.	.	4cc\	.	4ccc\	.	.	.
.	.	.	2b/	.	2bb\	.	.	.
=43	=43	=43	=43	=43	=43	=43	=43-	=43
1.GG]	.	1.GG]	4dd\	.	4ddd\	.	.	.
.	.	.	4b/	.	4bb\	.	.	.
.	.	.	2b/	.	2bb\	.	.	.
!	!	!	!	!	!LO:LB:g=original	!	!	!
.	.	.	4a/	.	4aa\	.	.	.
.	.	.	4g/	.	4gg\	.	.	.
=44	=44	=44	=44	=44	=44	=44	=44-	=44
2GG/	.	2GG/	4b/	.	4bb\	.	.	.
.	.	.	4f#/	.	4ff#\	.	.	.
2GG/	.	2GG/	2g/	.	2gg\	.	.	.
2r	.	2r	2r	.	2dd\	.	.	.
=45	=45	=45-	=45	=45	=45	=45	=45-	=45
!LO:TX:a:t=1	!	!LO:TX:a:t=1	!	!	!	!	!	!
1.r	.	1.r	2r	.	4b/	.	0.r	.
.	.	.	.	.	4f#/	.	.	.
.	.	.	2r	.	2g/	.	.	.
.	.	.	2dd\	.	2r	.	.	.
!	!	!	!LO:LB:g=original	!	!	!	!	!
=46-	=46	=46	=46	=46	=46-	=46	=46-	=46
!	!	!	!	!	!LO:TX:a:t=2	!	!	!
2r	.	2r	4b/	.	1.r	.	.	.
.	.	.	4f#/	.	.	.	.	.
2r	.	2r	2g/	.	.	.	.	.
!	!	!	!LO:TX:b:t=Finis	!	!	!	!	!
2d\	.	2d\	2r	.	.	.	.	.
=47	=47	=47	=47-	=47	=47-	=47	=47-	=47
!	!	!	!LO:TX:a:t=1	!	!LO:TX:b:t=Finis	!	!LO:TX:a:t=Finis	!
4B\	6 x	4B\	1.r;>	.	1.r	.	1.r	.
4F#\	6 x	4F#\	.	.	.	.	.	.
!LO:TX:b:t=Finis	!	!LO:TX:b:t=Finis	!	!	!	!	!	!
2G;>\	.	2G;>\	.	.	.	.	.	.
4G\	.	4G\	.	.	.	.	.	.
4F#\	.	4F#\	.	.	.	.	.	.
!	!	!LO:LB:g=original	!	!	!	!	!	!
=48||	=48||	=48||	=48||	=48||	=48||	=48||	=48||	=48||
!	!	!	!	!LO:DY:b:t=Piano	!	!LO:DY:b:t=Piano	!	!
2E\	.	2E\	2e/	p	2g/	p	2g/	en
2r	.	2r	4e/	.	4g/	.	4g/	in-
.	.	.	4f#/	.	4a/	.	4a\	-car-
2r	.	2r	4g/	.	4b/	.	4b\	-na-
.	.	.	4e/	.	4g/	.	4g/	-tus
=49	=49	=49	=49	=49	=49	=49	=49	=49
2AA/	6 x	2AA/	4f#/	.	4a/	.	4a\	te-
.	.	.	4e/	.	4g/	.	4g/	-ne-
2BB/	# x	2BB/	2d#X/	.	2f#/	.	2f#/	-rum
!LO:TX:a:t=|:problem	!	!	!	!	!	!	!	!
2BB/	.	2BB/	2r	.	2r	.	2r	.
=50	=50	=50	=50	=50	=50	=50	=50	=50
2E\	.	2E\	2e/	.	2g/	.	2g/	Cre-
2r	.	2r	4e/	.	4g/	.	4g/	-scit
*	*	*	*	*	*	*	*custos:a	*
!	!	!	!	!	!	!	!LO:LB:g=original	!
.	.	.	4f#/	.	4a/	.	4a\	De-
2r	.	2r	4g/	.	4b/	.	4b\	-us
.	.	.	4e/	.	4g/	.	4g/	in
!LO:LB:g=original	!	!	!	!	!	!	!	!
=51	=51	=51	=51	=51	=51	=51	=51	=51
2A\	6 x	2A\	4f#/	.	4a/	.	4a\	pu-
.	.	.	4e/	.	4g/	.	4g/	-e-
2B\	# x	2B\	2d#X/	.	2f#/	.	2f#/	-rum
!LO:TX:a:t=|:problem	!	!	!	!	!	!	!	!
2BB/	.	2BB/	2r	.	2r	.	2r	.
=52	=52	=52	=52	=52	=52	=52	=52	=52
2BB/	# x	2BB/	2d#X/	.	2f#/	.	2f#/	Lau-
2r	.	2r	2d#/	.	2f#/	.	2f#/	-dem
2r	.	2r	2g/	.	2b/	.	2b\	cla-
=53	=53	=53	=53	=53	=53	=53	=53	=53
2BB/	8 6	2BB/	4g/	.	4b/	.	4b\	-re
.	7 5	.	[<4f#/	.	[<4a/	.	4a\	mi-
2r	.	2r	4f#/]	.	4a/]	.	4a\	-ra-
.	.	.	4e/	.	[<4g/	.	4g/	-cu-
2r	.	2r	(<4e/	.	4g/]	.	(<4g/	-lo
.	.	.	4d#X/)	.	4f#/	.	4f#/)	.
!	!	!	!	!	!LO:LB:g=original	!	!	!
=54	=54	=54	=54	=54	=54	=54	=54	=54
!	!	!	!LO:SIC:v:s:t=2d#	!	!	!	!	!
2BB/	# x	2BB/	2d/	.	2f#/	.	2f#/	La-
!	!	!	!LO:SIC:v:s:t=2d#	!	!	!	!	!
2r	.	2r	2d/	.	2f#/	.	2f#/	-tri-
2r	.	2r	2g/	.	2b/	.	2b\	-am
!	!	!	!LO:LB:g=original	!	!	!	!	!
=55	=55	=55	=55	=55	=55	=55	=55	=55
2BB/	8 6	2BB/	4g/	.	4b/	.	4b\	Sed
.	7 5	.	[<4f#/	.	[<4a/	.	4a\	te
2r	.	2r	4f#/]	.	4a/]	.	4a\	nel-
!	!	!	!	!	!	!	!LO:LB:g=original	!
.	.	.	4e/	.	4g/	.	4g/	-lu-
2r	.	2r	4e/	.	4g/	.	(<4g/	-lo
.	.	.	4d#X/	.	4f#/	.	4f#/)	.
=56	=56	=56	=56	=56	=56	=56	=56	=56
!LO:TX:a:t=|:problem	!	!	!	!	!	!LO:DY:b:t=Forte	!	!
2BB/	.	2BB/	4g/	.	4b/	f	2r	.
.	.	.	[<4f#/	.	4a/	.	.	.
2r	.	2r	4f#/]	.	4a/	.	2r	.
.	.	.	[<4e/	.	4g/	.	.	.
2r	.	2r	4e/]	.	4g/	.	2ee\	te
.	.	.	4d#X/	.	4f#/	.	.	.
=57	=57	=57	=57	=57	=57	=57	=57	=57
!	!	!	!LO:TX:a:t=2	!	!LO:TX:a:t=2	!	!	!
1B;;	.	1B;;	0.r	.	0.r	.	1ee	nel-
2BB;</	# x	2BB;;/	.	.	.	.	2dd#X\	-lu-
!	!	!LO:LB:g=original	!	!	!	!	!	!
=58	=58	=58	=58-	=58	=58-	=58	=58	=58
!	!	!	!LO:TX:a:t=DaCapo	!	!LO:TX:a:t=Da \ncapo	!	!	!
2E\	.	2E\	.	.	.	.	2ee\	-lo…
4F#\	.	4F#\	.	.	.	.	2r	.
4D\	.	4D\	.	.	.	.	.	.
!	!	!	!	!	!	!	!LO:TX:a:t=Da Capo	!
4E\	.	4E\	.	.	.	.	2r	.
!LO:TX:a:t=DaCapo	!	!LO:TX:a:t=DaCapo	!	!	!	!	!	!
4F#\	.	4F#\	.	.	.	.	.	.
==	==	==	==	==	==	==	==	==
*-	*-	*-	*-	*-	*-	*-	*-	*-
!!!system-decoration: g1[(g2)]g3
!!!RDF**kern: > = above
!!!RDF**kern: < = below
!!!ENC: Andrzej Borzym
!!!END: 2020-07-22
!!!EED: Jędrzej Mróz
!!!EEV: 2021-12-28
!!!YEC: Copyright 2022 Narodowy Instytut Fryderyka Chopina (https://polishscores.org)
!!!YEM: License CC-BY-4.0 (https://creativecommons.org/licenses/by/4.0)
